X: 1
T:N°84 La Nouvelle alexandrine
C:trad
O:Belgium
S:JAMIN manuscript page 51-052
Z:ABC transcription Olivier VIENNE troubadourwallon@gmail.com
M:2/4
L:1/16
K:Gmaj
%%staves 1
[V:1]
G2|G,2 G,4 d2|B2g2 d2b2|g2d2 B2G2|A2 A4
A2|A,2 A,4 C2|F2A2 c2f2|g(dB)d g(ba)f|a4 g2||
d2|D6 (FE)|D2F2 A2c2|(.e2.d2) .d2.d2|d6 (B,D)|
C6(DC)|(A,B,CD E)FGA|B2B2 B2c2|(e4 d2)||
%%staves 2 3
[V:2]"Primo"
d2|d2d'2 b2g2|d2b2 g2d2|B2d2 c2A2|d2>c2 B2
d2|d2d'2 b2g2|d2b2 g2d2|B2d2 ^c2A2|(e4 d2)!D.C.!|]
[V:3]"Secondo"
z2|[GB]4 z4|[GB]4 z4|[GB]4 [FA]4|[GB]4 z2
z2|[GB]4 z4|[GB]4 z4|[GB]4 [FA]4|^c4 d2!D.C.!|]





